X: 1573
T: Bantry Bay
C:(Collected from F. O'Neill)
M:C|
K:G
(dc)|BGAG EGDE|G2G>G G3 B|AGAB cBAG|Bdde d3 d|
edef gage|dedB A (GA)|BGAG EGDE|G2 G>G G2:|
|:(Bc)|dBGB dBGB|e2 e>d e2 de|f2 fe defe|g2 gf g2 z2|
d2 ef gage|dedB A2 (GA)|BGAG EGDE|G2 G>G G2 :|


